X: 1
T: Miss Catherine Stewart of Pettyvaich
C: William Marshall
R: jig
B: RSCDS 38-3
Z: 1997 by John Chambers <jc:trillian.mit.edu>
M: 6/8
L: 1/8
K: F
|: "F"F2d cAF | "Bb"GAF "C"E2C | "F"F2d cAF | "C7"cde "F7"f2c \
| "Bb"def "F"cAF | "G7"GAF "C7"E2G | "Dm"F2d "(F)"cAF | "C7"CDE "F"F3 :|
|: "F"fcf agf | "C7"egb bge | "F"fcf agf | "Bb"def "F"cBA \
| "Bb"dBd "F"cBA | "G7"GAF "C7"EDC | "Dm"F2d "(F)"cAF | "C7"CDE "F"F3 :|
%%center Book38/CatherineStewartOfPettyvaich-JC.abc

%%sep 1 1 500
%%sep 1 1 500

